icons/outline/text-resize.svg

<!--
tags: [edit, editor, scale, font, bigger, smaller]
category: Design
version: "1.46"
unicode: "ef87"
-->
<svg
  xmlns="http://www.w3.org/2000/svg"
  width="24"
  height="24"
  viewBox="0 0 24 24"
  fill="none"
  stroke="currentColor"
  stroke-width="2"
  stroke-linecap="round"
  stroke-linejoin="round"
>
  <path d="M5 5m-2 0a2 2 0 1 0 4 0a2 2 0 1 0 -4 0m16 0m-2 0a2 2 0 1 0 4 0a2 2 0 1 0 -4 0m-12 14m-2 0a2 2 0 1 0 4 0a2 2 0 1 0 -4 0m16 0m-2 0a2 2 0 1 0 4 0a2 2 0 1 0 -4 0m-12 -12v10m2 -12h10m-10 14h10m2 -12v10m-9 -7h4m-2 4v-4" />
</svg>

<!--
tags: [edit, editor, scale, font, bigger, smaller]
category: Design
version: "1.46"
unicode: "ef87"
-->
<svg
  xmlns="http://www.w3.org/2000/svg"
  width="24"
  height="24"
  viewBox="0 0 24 24"
  fill="none"
  stroke="currentColor"
  stroke-width="2"
  stroke-linecap="round"
  stroke-linejoin="round"
>
    <path d="M5 5m-2 0a2 2 0 1 0 4 0a2 2 0 1 0 -4 0M19 5m-2 0a2 2 0 1 0 4 0a2 2 0 1 0 -4 0M5 19m-2 0a2 2 0 1 0 4 0a2 2 0 1 0 -4 0M19 19m-2 0a2 2 0 1 0 4 0a2 2 0 1 0 -4 0M5 7v10M7 5h10M7 19h10M19 7v10M10 10h4M12 14v-4" />
</svg>
